X: 1
T: The Tarbolton Reel
M: 4/4
L: 1/8
Z: 2006 John Chambers <jc@trillian.mit.edu>
K: EDor
D \
| "Em"Eeed e2BA | "Em"GBAF "A7"GFEF | "D"Dddc d2AF | "A7"GBAG "D"FDDF | "Em"Eeed efge |
| "D"fedf edBA | "G"GABG "D"FGA=c | "B7"BGAF "Em"GEE :: f | "Em"g2ef gebe | "Em"gebe "A7"gfef |
| "D"d2fd Adfd | "A7"ABAG "D"FDDF | "G"G2BG "D"FGAF | "Em"Eeef gfed | "G"B2dB "D"AGFA | "B7"BGAF "Em"GEE :|
